X:1
T:The Dreadful Life I'm Livin'
M:4/4
L:1/4
K:G
 D E| G3/2 G/2 G G| G D A B| c B A G| A2| B A| c B A G| G D2 D| E G G F|\
 G2|
